X:424
T:Major Malley's Reel
T:Major Molle
C:Andrew Gow
D:Battlefield Band, Home Is Where the Van Is
Z:Nigel Gatherer
M:4/4
L:1/8
K:A dorian
e>B | A>ee>d    c>BA>G | A>ee>d    c2 B2  | A>ee>f    g>fg>e | d>BG>B d2 :|
c>B | A>E E/E/E c>AB>G | A>E E/E/E c2 B>c | A>E E/E/E c>AB>c | d>BG>B d2
c>B | A>E E/E/E c>AB>G | A>E E/E/E c2 B>c | A>ee>f    g>fg>e | d>BG>B d2 |]
<end>
<start>
